X:036
%%topmargin 3cm
T:Old French
B:The Nelson Music Collection
N:Newton F. Tolman & K. Dep. Gilbert
Z:Transcribed by Ralph Palmer
R:Hornpipe
L:1/16
M:2/4
K:D
((3ABc) | d2cd BdAF | DFAd f2ed | cdef gece | defd A2 ((3ABc) |
d2cd BdAF | DFAd f2ed | cdef gece | d2f2 d2 ::
K:A
cd | efed c2A2 | AEAc e2dc | B=GBd =gfed |[1 cAce a2cd :|][2 Tc2A2 A2 |]

